X:0
T:Reel 0
M:4/4
K:Gmaj
L:1/8
 (3gfe |d>G (3BGG B>G (3GFG |d>G (3Bfg d2B2| (3cBc B>G  (3ABc B>G|A>F (3AEA c>A (3ABA |d>g (3gfg d>G (3GFG |D>G (3BAB d2fg|a>g (3fed e>cAFGA|G2FG AG|D2|G2G2 G2G2|B>G (3BfB d2B2|A>A (3AAA a>A (3ABc |eA (3AAB c>A (3AAA |G>F (3FGA  (3ABA |G2B>G  (3gfg d2|A>A (3AAA f2Ac| (3ABA  (3edA B2|
